X:1
M:6/8
K:G
A|B2A A2B|BAB AAA|BAc efe|g3 -f2:|
f/2g/2|a2e d2e|f2d c2c|d2d e2d|d2B AAA|
B2B c2B|c2B B2A|A2B c2d|e3 f2e|d2f e2f|
g2f agf|f2d fed|d2e d2c|BdB G2A|B2G ABA|
G2A Ace|e2e agf|e2c efe|c3 A2:|